X: 2
T: Jim Donoghue's
R: reel
M: 4/4
L: 1/8
K: Dmaj
A2 AF BFAF|BFAF EDB,D|A2 AF BFAF|EDEF DEFB|
A2 AF BFAF|BFAF ABde| f2fe dBAF|1 EDEF DEFG:|2 EDEF D2ze||
f2 fe f2 fe|dfed BAFA|Beed e2 de|fedf edBA|
f2 fe fgfe|dcdA BAFB|ABde fdAF|1 EDEF D2ze|2 EDEF DEFG|]


Tune 2536	Setting 2536

